X: 1
T:Farewell to Tarwathie
M:C
L:1/8
Q:80
C:arr. Kent Hiestand
S:Slow March 4/4
K:HP
de[|
{GdG}f4{gef}e/2{g}d3/2{gBd}B{G}A-|
A4{GAG}A2{GBG}B2-|
B4{GdG}de3/4{g}e/4{g}f2-|  !
f4{g}d2e2|
{GdG}f4{g}e/2{g}d3/2{gBd}B{G}A-|
A4{GAG}A2{GBG}B2-|  !
B2cd-d2{GdG}c2|
d6|]
c2[|
{Gdc}d4fa3|
{g}af3{g}f/4e/4d3/2e2-|  !
e2{g}f/4e3/4d-de3/4{g}e/4{g}f2-|
f4{g}d2e2|
{GdG}f4{gef}e/2{g}d3/2{gBd}B{G}A-|  !
A4{GAG}A4|
{GBG}B2{Gdc}d2-d2{GdG}c2|
d6|]  !
